X:1
T: Robert Forsyth Crowe
C:Muriel A Johnstone
R:Reel
%Q: 232
K:A
M:4/4
L:1/8
|:E2|A,2 CE AE cA|BE GB ed cB|cA ec a2 ga|fe dc BA GF|
EA, CE A2 GA|BE GB e2 ^de|dc BA GF ED|C2 A,2 A,2:|
e2|f3a Ad fa|e3a Ac ea|d3b -be gb|ag fe dc BA|
f3a Ad fa|e3a Ac ea|Ba gf ed cB|c2 A2 A2 e2|
fa df aA df|ea ce aA ce|db Bd be gb|ag fe dc BA|
fa df aA df|ea ce aA ce|Ba gf ed cB|c2 A2 A2 ||
